svg/ibm-cloud.svg

<?xml version="1.0" encoding="UTF-8"?>
<svg xmlns="http://www.w3.org/2000/svg" xmlns:xlink="http://www.w3.org/1999/xlink" width="38.856998" height="32" viewBox="0 0 38.856998 32">
<defs>
<linearGradient id="linear-pattern-0" gradientUnits="userSpaceOnUse" x1="0.824" y1="-0.124" x2="0.217" y2="1.043" gradientTransform="matrix(34.699219, 0, 0, 12.17188, 0.855, 0)">
<stop offset="0" stop-color="rgb(31.37255%, 100%, 82.352942%)" stop-opacity="1"/>
<stop offset="0.01" stop-color="rgb(0%, 39.215687%, 100%)" stop-opacity="1"/>
</linearGradient>
<linearGradient id="linear-pattern-1" gradientUnits="userSpaceOnUse" x1="0.824" y1="-0.124" x2="0.217" y2="1.043" gradientTransform="matrix(22.800779, 0, 0, 19.980471, 5.809, 7.094)">
<stop offset="0" stop-color="rgb(31.37255%, 100%, 82.352942%)" stop-opacity="1"/>
<stop offset="0.01" stop-color="rgb(0%, 39.215687%, 100%)" stop-opacity="1"/>
</linearGradient>
<linearGradient id="linear-pattern-2" gradientUnits="userSpaceOnUse" x1="0.824" y1="-0.124" x2="0.217" y2="1.043" gradientTransform="matrix(36.570301, 0, 0, 14.88672, 0, 15.621)">
<stop offset="0" stop-color="rgb(31.37255%, 100%, 82.352942%)" stop-opacity="1"/>
<stop offset="0.01" stop-color="rgb(0%, 39.215687%, 100%)" stop-opacity="1"/>
</linearGradient>
<linearGradient id="linear-pattern-3" gradientUnits="userSpaceOnUse" x1="0.824" y1="-0.124" x2="0.217" y2="1.043" gradientTransform="matrix(6.91406, 0, 0, 7.41797, 0, 15.473)">
<stop offset="0" stop-color="rgb(31.37255%, 100%, 82.352942%)" stop-opacity="1"/>
<stop offset="0.01" stop-color="rgb(0%, 39.215687%, 100%)" stop-opacity="1"/>
</linearGradient>
<linearGradient id="linear-pattern-4" gradientUnits="userSpaceOnUse" x1="0.824" y1="-0.124" x2="0.217" y2="1.043" gradientTransform="matrix(16.574221, 0, 0, 8.90234, 17.586, 12.594)">
<stop offset="0" stop-color="rgb(31.37255%, 100%, 82.352942%)" stop-opacity="1"/>
<stop offset="0.01" stop-color="rgb(0%, 39.215687%, 100%)" stop-opacity="1"/>
</linearGradient>
</defs>
<path fill-rule="nonzero" fill="url(#linear-pattern-0)" d="M 4.847656 12.171875 C 4.726562 12.167969 4.609375 12.132812 4.5 12.078125 L 1.226562 10.296875 C 0.921875 10.15625 0.777344 9.804688 0.894531 9.492188 C 1.042969 9.144531 1.4375 8.976562 1.792969 9.105469 L 1.910156 9.160156 L 5.179688 10.941406 C 5.511719 11.105469 5.648438 11.507812 5.472656 11.820312 C 5.355469 12.042969 5.121094 12.171875 4.847656 12.171875 M 10.515625 6.847656 C 10.273438 6.847656 10.042969 6.722656 9.914062 6.515625 L 8.023438 3.433594 C 7.847656 3.152344 7.90625 2.785156 8.160156 2.570312 C 8.453125 2.332031 8.882812 2.363281 9.132812 2.644531 C 9.152344 2.679688 9.191406 2.699219 9.210938 2.734375 L 11.101562 5.820312 C 11.296875 6.113281 11.21875 6.5 10.925781 6.71875 C 10.804688 6.804688 10.660156 6.847656 10.515625 6.847656 M 17.527344 4.203125 L 17.527344 0.699219 C 17.527344 0.332031 17.800781 0.0390625 18.191406 0 C 18.578125 -0.015625 18.890625 0.257812 18.910156 0.625 L 18.910156 4.257812 C 18.910156 4.625 18.597656 4.921875 18.210938 4.921875 L 18.167969 4.921875 C 17.820312 4.863281 17.527344 4.554688 17.527344 4.203125 M 25.941406 6.847656 C 25.800781 6.851562 25.664062 6.8125 25.550781 6.738281 C 25.257812 6.535156 25.179688 6.136719 25.375 5.835938 L 27.265625 2.753906 C 27.472656 2.4375 27.886719 2.335938 28.21875 2.515625 C 28.257812 2.539062 28.296875 2.550781 28.316406 2.589844 C 28.566406 2.804688 28.625 3.171875 28.453125 3.453125 L 26.5625 6.535156 C 26.414062 6.730469 26.183594 6.847656 25.941406 6.847656 M 31.589844 12.171875 C 31.332031 12.171875 31.09375 12.039062 30.964844 11.820312 C 30.882812 11.664062 30.871094 11.484375 30.921875 11.320312 C 30.980469 11.15625 31.101562 11.019531 31.257812 10.941406 L 34.488281 9.179688 C 34.78125 9.011719 35.152344 9.066406 35.386719 9.308594 C 35.640625 9.582031 35.601562 9.984375 35.308594 10.226562 C 35.269531 10.242188 35.25 10.28125 35.210938 10.296875 L 31.898438 12.097656 C 31.800781 12.148438 31.695312 12.175781 31.589844 12.171875 M 31.589844 12.171875 "/>
<path fill-rule="nonzero" fill="url(#linear-pattern-1)" d="M 9.445312 27.074219 C 4.597656 22.503906 4.597656 15.089844 9.445312 10.519531 C 14.292969 5.949219 22.164062 5.949219 27.011719 10.519531 C 27.605469 11.074219 28.140625 11.691406 28.609375 12.355469 L 27.460938 13.070312 C 27.285156 12.832031 27.109375 12.59375 26.914062 12.371094 C 26.640625 12.042969 26.347656 11.730469 26.039062 11.4375 C 21.734375 7.378906 14.742188 7.378906 10.417969 11.4375 C 6.117188 15.492188 6.117188 22.082031 10.417969 26.15625 Z M 9.445312 27.074219 "/>
<path fill-rule="nonzero" fill="url(#linear-pattern-2)" d="M 27.089844 30.507812 L 7.964844 30.507812 C 3.523438 30.46875 -0.0390625 27.074219 0 22.890625 L 1.382812 22.910156 C 1.363281 26.359375 4.304688 29.1875 7.964844 29.222656 L 27.070312 29.222656 C 31.550781 29.222656 35.171875 25.808594 35.191406 21.585938 C 35.191406 19.714844 34.453125 17.898438 33.125 16.484375 L 34.160156 15.621094 C 37.644531 19.3125 37.3125 24.964844 33.417969 28.25 C 31.636719 29.714844 29.398438 30.511719 27.089844 30.507812 M 27.089844 30.507812 "/>
<path fill-rule="nonzero" fill="url(#linear-pattern-3)" d="M 1.382812 22.890625 L 0 22.871094 C 0.0195312 19.199219 2.84375 16.082031 6.679688 15.472656 L 6.914062 16.757812 C 3.738281 17.273438 1.402344 19.859375 1.382812 22.890625 M 1.382812 22.890625 "/>
<path fill-rule="nonzero" fill="url(#linear-pattern-4)" d="M 18.96875 21.496094 L 17.585938 21.476562 C 17.625 16.539062 21.910156 12.554688 27.148438 12.59375 C 29.816406 12.609375 32.367188 13.695312 34.160156 15.566406 L 33.125 16.429688 C 30.148438 13.289062 25.007812 13.015625 21.675781 15.824219 C 19.980469 17.292969 18.988281 19.347656 18.96875 21.496094 M 18.96875 21.496094 "/>
</svg>

<svg role="img" viewBox="0 0 38.857 32" xmlns="http://www.w3.org/2000/svg"><defs><linearGradient gradientTransform="matrix(34.69922 0 0 12.17188 .855 0)" gradientUnits="userSpaceOnUse" id="ibm-cloud_svg__a" x1=".824" x2=".217" y1="-.124" y2="1.043"><stop offset="0" stop-color="rgb(31.37255%, 100%, 82.352942%)"/><stop offset=".01" stop-color="rgb(0%, 39.215687%, 100%)"/></linearGradient><linearGradient gradientTransform="matrix(22.80078 0 0 19.98047 5.809 7.094)" gradientUnits="userSpaceOnUse" id="ibm-cloud_svg__b" x1=".824" x2=".217" y1="-.124" y2="1.043"><stop offset="0" stop-color="rgb(31.37255%, 100%, 82.352942%)"/><stop offset=".01" stop-color="rgb(0%, 39.215687%, 100%)"/></linearGradient><linearGradient gradientTransform="matrix(36.5703 0 0 14.88672 0 15.621)" gradientUnits="userSpaceOnUse" id="ibm-cloud_svg__c" x1=".824" x2=".217" y1="-.124" y2="1.043"><stop offset="0" stop-color="rgb(31.37255%, 100%, 82.352942%)"/><stop offset=".01" stop-color="rgb(0%, 39.215687%, 100%)"/></linearGradient><linearGradient gradientTransform="matrix(6.91406 0 0 7.41797 0 15.473)" gradientUnits="userSpaceOnUse" id="ibm-cloud_svg__d" x1=".824" x2=".217" y1="-.124" y2="1.043"><stop offset="0" stop-color="rgb(31.37255%, 100%, 82.352942%)"/><stop offset=".01" stop-color="rgb(0%, 39.215687%, 100%)"/></linearGradient><linearGradient gradientTransform="matrix(16.57422 0 0 8.90234 17.586 12.594)" gradientUnits="userSpaceOnUse" id="ibm-cloud_svg__e" x1=".824" x2=".217" y1="-.124" y2="1.043"><stop offset="0" stop-color="rgb(31.37255%, 100%, 82.352942%)"/><stop offset=".01" stop-color="rgb(0%, 39.215687%, 100%)"/></linearGradient></defs><path d="M4.848 12.172a.84.84 0 0 1-.348-.094l-3.273-1.781a.64.64 0 0 1-.332-.805.71.71 0 0 1 .898-.387l.117.055 3.27 1.781c.332.164.468.567.293.88-.118.222-.352.35-.625.35m5.668-5.323a.71.71 0 0 1-.602-.332l-1.89-3.082a.67.67 0 0 1 .136-.864.706.706 0 0 1 .973.075c.02.035.058.054.078.09L11.1 5.82c.196.293.118.68-.175.899a.7.7 0 0 1-.41.129m7.011-2.645V.7c0-.367.274-.66.664-.699.387-.016.7.258.72.625v3.633c0 .367-.313.664-.7.664h-.043c-.348-.059-.64-.367-.64-.719m8.413 2.645a.7.7 0 0 1-.39-.11.66.66 0 0 1-.176-.902l1.89-3.082a.725.725 0 0 1 .954-.238c.039.023.078.035.097.074.25.215.309.582.137.863l-1.89 3.082a.79.79 0 0 1-.622.313m5.649 5.324a.72.72 0 0 1-.625-.352.66.66 0 0 1-.043-.5c.058-.164.18-.3.336-.379l3.23-1.761a.74.74 0 0 1 .899.129c.254.273.215.675-.078.918-.04.015-.059.054-.098.07l-3.313 1.8a.6.6 0 0 1-.308.075m0 0" fill="url(#ibm-cloud_svg__a)"/><path d="M9.445 27.074c-4.847-4.57-4.847-11.984 0-16.554s12.72-4.57 17.567 0a12 12 0 0 1 1.597 1.835l-1.148.715c-.176-.238-.352-.476-.547-.699q-.41-.492-.875-.934c-4.305-4.058-11.297-4.058-15.621 0-4.3 4.055-4.3 10.645 0 14.72Zm0 0" fill="url(#ibm-cloud_svg__b)"/><path d="M27.09 30.508H7.965C3.523 30.468-.04 27.074 0 22.89l1.383.02c-.02 3.448 2.922 6.276 6.582 6.312H27.07c4.48 0 8.102-3.414 8.121-7.637 0-1.871-.738-3.688-2.066-5.102l1.035-.863c3.485 3.691 3.153 9.344-.742 12.629a9.94 9.94 0 0 1-6.328 2.258m0 0" fill="url(#ibm-cloud_svg__c)"/><path d="M1.383 22.89 0 22.872c.02-3.672 2.844-6.789 6.68-7.398l.234 1.285c-3.176.515-5.512 3.101-5.531 6.133m0 0" fill="url(#ibm-cloud_svg__d)"/><path d="m18.969 21.496-1.383-.02c.039-4.937 4.324-8.921 9.562-8.882 2.668.015 5.22 1.101 7.012 2.972l-1.035.864c-2.977-3.14-8.117-3.414-11.45-.606-1.695 1.469-2.687 3.524-2.706 5.672m0 0" fill="url(#ibm-cloud_svg__e)"/></svg>
